assets/images/GSAP_2023.svg

<?xml version="1.0" encoding="UTF-8" standalone="no"?>
<svg
   xmlns:dc="http://purl.org/dc/elements/1.1/"
   xmlns:cc="http://creativecommons.org/ns#"
   xmlns:rdf="http://www.w3.org/1999/02/22-rdf-syntax-ns#"
   xmlns:svg="http://www.w3.org/2000/svg"
   xmlns="http://www.w3.org/2000/svg"
   xmlns:sodipodi="http://sodipodi.sourceforge.net/DTD/sodipodi-0.dtd"
   xmlns:inkscape="http://www.inkscape.org/namespaces/inkscape"
   viewBox="0 0 1000 367.19492"
   version="1.1"
   id="svg38"
   sodipodi:docname="A.svg"
   width="1000"
   height="367.19492"
   style="fill:none"
   inkscape:version="0.92.4 (5da689c313, 2019-01-14)">
  <metadata
     id="metadata44">
    <rdf:RDF>
      <cc:Work
         rdf:about="">
        <dc:format>image/svg+xml</dc:format>
        <dc:type
           rdf:resource="http://purl.org/dc/dcmitype/StillImage" />
        <dc:title>GSAP</dc:title>
      </cc:Work>
    </rdf:RDF>
  </metadata>
  <defs
     id="defs42" />
  <sodipodi:namedview
     pagecolor="#ffffff"
     bordercolor="#111111"
     borderopacity="1"
     objecttolerance="10"
     gridtolerance="10"
     guidetolerance="10"
     inkscape:pageopacity="0"
     inkscape:pageshadow="2"
     inkscape:window-width="1920"
     inkscape:window-height="1017"
     id="namedview40"
     showgrid="false"
     fit-margin-top="0"
     fit-margin-left="0"
     fit-margin-right="0"
     fit-margin-bottom="0"
     inkscape:zoom="1.0091463"
     inkscape:cx="487.32676"
     inkscape:cy="100.51131"
     inkscape:window-x="1912"
     inkscape:window-y="-8"
     inkscape:window-maximized="1"
     inkscape:current-layer="svg38" />
  <title
     id="title30">GSAP</title>
  <path
     d="m 509.11572,105.87452 a 6.7074267,6.7074267 0 0 1 -6.70743,6.48711 h -69.10608 c -4.52873,0 -8.31084,-3.67194 -8.31084,-8.13948 0,-20.159 -6.9767,-29.97535 -21.24835,-29.97535 -14.27164,0 -23.47599,8.76372 -23.74527,24.07575 -0.30599,17.07456 9.35123,32.59467 36.84189,59.25302 36.19318,33.95328 50.69738,64.02655 49.99971,103.78151 -1.13831,64.28359 -44.84674,105.83781 -111.35797,105.83781 -33.96553,0 -59.91397,-9.08195 -77.17213,-27.00106 -17.5152,-18.20063 -25.54453,-44.90794 -23.86767,-79.3753 a 6.7074267,6.7074267 0 0 1 6.71967,-6.48711 h 71.4806 a 6.7319064,6.7319064 0 0 1 5.16521,2.54588 5.8751183,5.8751183 0 0 1 1.29742,4.7001 c -0.79559,12.43567 1.37086,21.7257 6.2668,26.86642 3.13339,3.32924 7.50301,5.01834 12.94974,5.01834 13.20677,0 20.94234,-9.32676 21.2361,-25.58125 0.2448,-14.05132 -4.19826,-26.36459 -28.40864,-51.27265 C 319.87571,186.05765 291.83426,154.49113 292.70329,104.85862 293.21736,76.07054 304.64936,49.74267 324.90628,30.72197 346.32598,10.62417 375.6159,0 409.61814,0 c 34.06345,0.24479 59.87725,9.96322 76.7315,28.886 15.96073,17.93135 23.63511,43.83083 22.79056,76.98852 z"
     style="opacity:1;fill:#00e559;fill-opacity:1;stroke-width:12.23983002"
     id="path32"
     inkscape:connector-curvature="0" />
  <path
     d="M 723.31274,355.10194 723.76561,13.20677 A 6.4259106,6.4259106 0 0 0 717.29074,6.68294 H 610.33911 c -3.59851,0 -5.17745,3.09668 -6.20559,5.14073 L 449.27519,353.00893 v 0.0612 l -0.0612,0.0857 c -1.71357,4.19826 1.54222,8.69028 6.0832,8.69028 h 74.76088 c 4.03914,0 6.71966,-1.22399 8.02933,-3.76987 l 14.84691,-35.67911 c 1.82373,-4.76129 2.16645,-5.20192 7.35614,-5.20192 h 71.43164 c 4.96937,0 5.06729,0.0979 4.99385,4.95713 l -1.60341,33.16994 a 6.4259106,6.4259106 0 0 0 6.46263,6.52383 h 75.53199 a 6.401431,6.401431 0 0 0 4.93265,-2.22765 5.605842,5.605842 0 0 0 1.27294,-4.5165 z M 591.00018,240.95329 a 20.440516,20.440516 0 0 1 -1.6891,-0.0612 1.799255,1.799255 0 0 1 -1.59117,-2.25213 c 0.14687,-0.4896 0.35495,-1.16279 0.66095,-1.98285 l 53.56149,-132.53288 a 36.597091,36.597091 0 0 1 1.66462,-3.83107 c 0.86903,-1.78701 1.92165,-1.90941 2.25213,-0.58751 0.28151,1.10159 -6.1444,136.08243 -6.1444,136.08243 -0.50183,5.05505 -0.73439,5.26312 -5.716,5.67928 l -42.94956,-0.4896 h -0.0979 l 0.0367,-0.0245 z"
     id="path34"
     style="fill:#00e559;fill-opacity:1;stroke-width:12.23983002"
     inkscape:connector-curvature="0" />
  <path
     d="m 875.67414,6.68294 h -56.78057 c -2.99876,0 -6.36471,1.59118 -7.14806,5.16521 l -79.02034,343.08243 a 5.177448,5.177448 0 0 0 1.0771,4.44306 7.0134225,7.0134225 0 0 0 5.34881,2.47244 h 70.96653 c 3.81883,0 6.42591,-1.87269 7.13582,-5.11624 l 8.61684,-38.88594 c 0.61199,-3.03548 -0.44063,-5.38553 -3.15787,-6.80535 a 640.30221,640.30221 0 0 1 -3.81883,-1.98285 l -12.30103,-6.40143 -12.23983,-6.38919 -4.73681,-2.46021 a 2.2766083,2.2766083 0 0 1 -1.26071,-2.08077 2.4357261,2.4357261 0 0 1 2.44797,-2.37453 l 38.88594,0.17136 c 11.62784,0.0612 23.26792,-0.75887 34.71216,-2.86412 C 944.93934,271.78542 998.42739,207.28151 999.96961,119.5097 1001.2915,44.60194 959.48025,6.64622 875.73534,6.64622 Z M 856.34745,210.8433 h -1.51774 c -3.41491,0 -4.01466,-0.36719 -4.11258,-0.48959 -0.0612,-0.0857 22.42337,-98.81214 22.43561,-98.94678 0.57527,-2.85188 0.55079,-4.49202 -1.21175,-5.45897 -2.25213,-1.24846 -35.07935,-18.55558 -35.07935,-18.55558 a 2.3133278,2.3133278 0 0 1 -1.23622,-2.10525 2.4112465,2.4112465 0 0 1 2.41124,-2.35005 h 51.90912 c 16.15658,0.4896 25.16509,14.94484 24.7367,39.63257 -0.74663,42.72925 -21.06475,86.7804 -58.33503,88.28589 z"
     id="path36"
     style="fill:#00e559;fill-opacity:1;stroke-width:12.23983002"
     inkscape:connector-curvature="0" />
  <g
     style="fill:#00e559;fill-opacity:1"
     id="g71"
     transform="matrix(12.23983,0,0,12.23983,0.00428872,0.83231)">
    <path
       id="path60"
       d="m 23.81,14.012 v 0.013 l -1.075,4.666 c -0.058,0.264 -0.322,0.457 -0.626,0.457 H 20.81 a 0.218,0.218 0 0 0 -0.208,0.156 c -1.198,4.064 -2.82,6.857 -4.962,8.534 -1.822,1.428 -4.068,2.094 -7.069,2.094 -2.696,0 -4.514,-0.867 -6.056,-2.579 -2.038,-2.262 -2.88,-5.966 -2.37,-10.428 0.92,-8.377 5.265,-16.83 13.631,-16.83 2.545,-0.022 4.543,0.763 5.933,2.33 1.47,1.658 2.216,4.154 2.22,7.422 a 0.55,0.55 0 0 1 -0.549,0.536 h -6.13 a 0.42,0.42 0 0 1 -0.407,-0.41 c -0.05,-2.26 -0.72,-3.36 -2.052,-3.36 -2.35,0 -3.736,3.19 -4.471,4.958 -1.027,2.47 -1.55,5.153 -1.447,7.825 0.049,1.244 0.249,2.993 1.43,3.718 1.047,0.642 2.541,0.216 3.446,-0.495 0.904,-0.712 1.632,-1.943 1.938,-3.066 0.043,-0.156 0.046,-0.277 0.005,-0.331 -0.043,-0.056 -0.162,-0.069 -0.253,-0.069 H 11.865 A 0.572,0.572 0 0 1 11.427,18.951 0.42,0.42 0 0 1 11.34,18.589 l 1.076,-4.674 c 0.053,-0.239 0.27,-0.42 0.537,-0.452 v -0.012 h 10.33 c 0.024,0 0.049,0 0.072,0.005 0.268,0.035 0.457,0.284 0.452,0.556 h 0.002 z"
       inkscape:connector-curvature="0"
       style="fill:#00e559;fill-opacity:1" />
  </g>
</svg>

<?xml version="1.0" encoding="UTF-8" standalone="no"?>
<!DOCTYPE svg PUBLIC "-//W3C//DTD SVG 1.1//EN" "http://www.w3.org/Graphics/SVG/1.1/DTD/svg11.dtd">
<svg width="100%" height="100%" viewBox="0 0 1076 1076" version="1.1" xmlns="http://www.w3.org/2000/svg" xmlns:xlink="http://www.w3.org/1999/xlink" xml:space="preserve" xmlns:serif="http://www.serif.com/" style="fill-rule:evenodd;clip-rule:evenodd;stroke-linejoin:round;stroke-miterlimit:2;">
    <g id="Artboard1" transform="matrix(2.073218,0,0,2.073218,-1036.608863,0)">
        <rect x="500" y="0" width="519" height="519" style="fill:none;"/>
        <g id="path32" transform="matrix(0.482342,0,0,0.482342,518.328997,170.943237)">
            <path d="M509.116,105.875C508.998,109.47 506.006,112.364 502.408,112.362L433.302,112.362C428.773,112.362 424.991,108.69 424.991,104.222C424.991,84.063 418.015,74.247 403.743,74.247C389.471,74.247 380.267,83.011 379.998,98.323C379.692,115.397 389.349,130.917 416.84,157.576C453.033,191.529 467.537,221.602 466.839,261.357C465.701,325.641 421.993,367.195 355.481,367.195C321.516,367.195 295.567,358.113 278.309,340.194C260.794,321.993 252.765,295.286 254.442,260.819C254.56,257.218 257.559,254.323 261.161,254.331L332.642,254.331C334.657,254.364 336.554,255.299 337.807,256.877C338.899,258.181 339.373,259.898 339.104,261.577C338.309,274.013 340.475,283.303 345.371,288.444C348.505,291.773 352.874,293.462 358.321,293.462C371.528,293.462 379.263,284.135 379.557,267.881C379.802,253.83 375.359,241.516 351.148,216.608C319.876,186.058 291.834,154.491 292.703,104.859C293.217,76.071 304.649,49.743 324.906,30.722C346.326,10.624 375.616,0 409.618,0C443.682,0.245 469.495,9.963 486.35,28.886C502.31,46.817 509.985,72.717 509.14,105.875L509.116,105.875Z" style="fill:rgb(0,229,89);fill-rule:nonzero;"/>
        </g>
        <g id="path34" transform="matrix(0.482342,0,0,0.482342,518.328997,170.943237)">
            <path d="M723.313,355.102L723.766,13.207C723.766,13.174 723.766,13.141 723.766,13.109C723.766,9.584 720.866,6.683 717.34,6.683C717.324,6.683 717.307,6.683 717.291,6.683L610.339,6.683C606.741,6.683 605.162,9.78 604.134,11.824L449.275,353.009L449.275,353.07L449.214,353.156C447.5,357.354 450.756,361.846 455.297,361.846L530.058,361.846C534.097,361.846 536.778,360.622 538.087,358.076L552.934,322.397C554.758,317.636 555.101,317.195 560.29,317.195L631.722,317.195C636.691,317.195 636.789,317.293 636.716,322.152L635.113,355.322C635.112,355.355 635.112,355.388 635.112,355.42C635.112,358.945 638.013,361.846 641.538,361.846C641.55,361.846 641.563,361.846 641.575,361.846L717.107,361.846C718.999,361.869 720.807,361.053 722.04,359.618C723.104,358.372 723.569,356.72 723.313,355.102L723.313,355.102ZM591,240.953C590.437,240.956 589.873,240.936 589.311,240.892C588.383,240.815 587.66,240.03 587.66,239.099C587.66,238.944 587.68,238.79 587.72,238.64C587.867,238.15 588.075,237.477 588.381,236.657L641.942,104.124C642.424,102.817 642.98,101.537 643.607,100.293C644.476,98.506 645.529,98.384 645.859,99.706C646.141,100.807 639.715,235.788 639.715,235.788C639.213,240.843 638.98,241.051 633.999,241.467L591.049,240.978L590.951,240.978L590.988,240.953L591,240.953Z" style="fill:rgb(0,229,89);fill-rule:nonzero;"/>
        </g>
        <g id="path36" transform="matrix(0.482342,0,0,0.482342,518.328997,170.943237)">
            <path d="M875.674,6.683L818.894,6.683C815.895,6.683 812.529,8.274 811.746,11.848L732.725,354.931C732.376,356.497 732.774,358.141 733.802,359.374C735.135,360.942 737.093,361.847 739.151,361.846L810.118,361.846C813.936,361.846 816.544,359.973 817.253,356.73L825.87,317.844C826.482,314.808 825.43,312.458 822.712,311.039C821.437,310.382 820.164,309.721 818.894,309.056L806.593,302.654L794.353,296.265L789.616,293.805C788.831,293.413 788.339,292.601 788.355,291.724C788.388,290.406 789.485,289.343 790.803,289.35L829.689,289.521C841.317,289.582 852.957,288.762 864.401,286.657C944.939,271.785 998.427,207.282 999.97,119.51C1001.292,44.602 959.48,6.646 875.735,6.646L875.674,6.683ZM856.347,210.843L854.83,210.843C851.415,210.843 850.815,210.476 850.717,210.354C850.656,210.268 873.14,111.542 873.153,111.407C873.728,108.555 873.704,106.915 871.941,105.948C869.689,104.7 836.862,87.392 836.862,87.392C836.084,86.984 835.604,86.165 835.625,85.287C835.658,83.988 836.737,82.937 838.037,82.937L889.946,82.937C906.102,83.427 915.111,97.882 914.682,122.57C913.936,165.299 893.618,209.35 856.347,210.856L856.347,210.843Z" style="fill:rgb(0,229,89);fill-rule:nonzero;"/>
        </g>
        <g id="path60" transform="matrix(5.903784,0,0,5.903784,518.331065,171.344695)">
            <path d="M23.81,14.012L23.81,14.025L22.735,18.691C22.677,18.955 22.413,19.148 22.109,19.148L20.81,19.148C20.714,19.148 20.629,19.212 20.602,19.304C19.404,23.368 17.782,26.161 15.64,27.838C13.818,29.266 11.572,29.932 8.571,29.932C5.875,29.932 4.057,29.065 2.515,27.353C0.477,25.091 -0.365,21.387 0.145,16.925C1.065,8.548 5.41,0.095 13.776,0.095C16.321,0.073 18.319,0.858 19.709,2.425C21.179,4.083 21.925,6.579 21.929,9.847C21.921,10.143 21.676,10.383 21.38,10.383L15.25,10.383C15.028,10.376 14.848,10.195 14.843,9.973C14.793,7.713 14.123,6.613 12.791,6.613C10.441,6.613 9.055,9.803 8.32,11.571C7.293,14.041 6.77,16.724 6.873,19.396C6.922,20.64 7.122,22.389 8.303,23.114C9.35,23.756 10.844,23.33 11.749,22.619C12.653,21.907 13.381,20.676 13.687,19.553C13.73,19.397 13.733,19.276 13.692,19.222C13.649,19.166 13.53,19.153 13.439,19.153L11.865,19.153C11.696,19.154 11.536,19.08 11.427,18.951C11.343,18.851 11.311,18.717 11.34,18.589L12.416,13.915C12.469,13.676 12.686,13.495 12.953,13.463L12.953,13.451L23.283,13.451C23.307,13.451 23.332,13.451 23.355,13.456C23.623,13.491 23.812,13.74 23.807,14.012L23.81,14.012Z" style="fill:rgb(0,229,89);fill-rule:nonzero;"/>
        </g>
    </g>
</svg>
